X: 41927
T: Wake Of The Barrel, The
R: jig
M: 6/8
K: Dmajor
|:f3 efg|a2 g f2e|d3 dcd|e2 d c2 A|
f3 efg|a2 g f2e|dcd efe|d3 d3:|
|:A3 ABc|d3 cBA|F3 FGA|G2 E F3|
F3 EFG|A2G F2E|D2D EFE|D3 D3:|

